X:841
L:1/8
M:4/4
K:G
 (3def | g3 f agfe | d3 e2 fg | B>GB>d d>Bc<A | G4 G/4F/4G/4A/4 B/4A/4B/4c/4 d/e/f/d/ | gagf agfe | 
 d>c B/c/d/c/ | BdBG cBcA | G6 :: d/e/d/c/ | B3 G B/G/B/d/ | g3 f efga | f2 d2 edef | 
 !fermata!d4 e2 f2 | g3 f agfe | d3 d e2 fg | BGBd cBcA | G4 D/4E/4F/4G/4 A/4B/4c/4d/4 e/d/e/f/ :|

